Adwaita++/actions/22/dialog-ok.svg

<svg fill="none" height="22" viewBox="0 0 22 22" width="22" xmlns="http://www.w3.org/2000/svg">
  <path d="m17.8667 4.0183c-.1287-.02413-.2624-.02553-.3998.00261-.2928.06316-.5627.22771-.7525.45902l-8.40342 9.59757-3.01017-3.0045c-.50348-.5025-1.4196-.5025-1.92317 0-.5035.5026-.50354 1.417 0 1.9196l4.01357 4.0059 1.0452 1.0015.91977-1.0849 9.36502-10.68257c.6642-.72176.0465-2.04526-.8545-2.21423z" fill="#444"/>
</svg>

<svg xmlns="http://www.w3.org/2000/svg" fill="none" width="22" height="22" viewBox="0 0 22 22">
 <path fill="#444" d="M17.8667 4.0183C17.738 3.99417 17.6043 3.99277 17.4669 4.02091C17.1741 4.08407 16.9042 4.24862 16.7144 4.47993L8.31098 14.0775L5.30081 11.073C4.79733 10.5705 3.88121 10.5705 3.37764 11.073C2.87414 11.5756 2.8741 12.49 3.37764 12.9926L7.39121 16.9985L8.43641 18L9.35618 16.9151L18.7212 6.23253C19.3854 5.51077 18.7677 4.18727 17.8667 4.0183Z"/>
</svg>
